X: 2612
T: Baltimore Beginners
R: jig
M: 6/8
K: Bminor
|:F2 B BAB|d2 B BAF|~G3 BAB|edc BAG|
F2 B BAB|d2 B BAF|GAB e dc|1 ~B3 BAG:|2 ~B3 Bde||
f2 B BAF|~G2 G Bcd|e2 d ced|cBA Bde|
f2 B BAF|~G2 G Bcd|edc BcA|~B3 Bde|
f2 B BAF|~G2 G Bcd|e2 d ced|cBA Bag|
f2 B BAF|~G2 G Bcd|edc BcA|~B3 BAG||

